X:737
T:Gynge Dantzen
T:(Göingedansen)
R:Långdans
Z:Patrik Månsson, 2008-11-08
O:Göinge, Skåne
S:Stig N 2002-03-13
N:Melodin finns ursprungligen upptecknad i kyrkoherde Pehr Lovens avhandling De Gothungia (Om Göinge) som utgavs 1745. Där omnämns den tillsammans med två liknande danser, Tredantzen och Elfvaredansen. Den första utföres på två sätt, antingen föres en lång rad av dansande fram och tillbaka i kretsar av sina ledare och sändas därefter liksom under ett ok, eller utför par av dansande danssteg som ej är mycket olika de danser som fransmännen kalla "menuett".
N:(Källa: "Göinge Musickanter. Det spelar en göing", 2002, ISBN 91-631-3024-6)
M:3/4
L:1/8
K:C

|: "Andante" d2 g2 ^f2 | g4 g2 | a2 d2 ^f2 | g4 g2 | a2 d2 ^f2 |
g4 g2 | e2 f2 g2 | e2 d2 c2 | e2 f2 g2 | e2 d2 c2 |
d2 G2 A2 | c4 c2 | d2 G2 B2 | c6 :: "Presto" dg fg fg |
g2 g2 g2 | ad gd fd | g2 g2 g2 | e2 ef g2 |
e2 ed c2 | e2 ef g2 | e2 ed c2 | dG AG AG |
c4 c2 | dG AG AG | c6 :|


(:musicend:)

(:music:)
